assets/img/copy-icon.svg

<svg width="16" height="16" viewBox="0 0 16 16" fill="none" xmlns="http://www.w3.org/2000/svg">
<path d="M13.6 5.90015H7.29992C6.52671 5.90015 5.8999 6.52696 5.8999 7.30016V13.6002C5.8999 14.3734 6.52671 15.0003 7.29992 15.0003H13.6C14.3732 15.0003 15 14.3734 15 13.6002V7.30016C15 6.52696 14.3732 5.90015 13.6 5.90015Z" stroke="black" stroke-opacity="0.4" stroke-width="1.5" stroke-linecap="round" stroke-linejoin="round"/>
<path d="M3.10003 10.1001H2.40002C2.02871 10.1001 1.67261 9.95261 1.41006 9.69005C1.1475 9.4275 1 9.0714 1 8.70009V2.40002C1 2.02871 1.1475 1.67261 1.41006 1.41006C1.67261 1.1475 2.02871 1 2.40002 1H8.70009C9.0714 1 9.4275 1.1475 9.69005 1.41006C9.95261 1.67261 10.1001 2.02871 10.1001 2.40002V3.10003" stroke="black" stroke-opacity="0.4" stroke-width="1.5" stroke-linecap="round" stroke-linejoin="round"/>
</svg>

<svg width="16" height="16" fill="none" xmlns="http://www.w3.org/2000/svg"><path d="M13.6 5.9H7.3a1.4 1.4 0 0 0-1.4 1.4v6.3A1.4 1.4 0 0 0 7.3 15h6.3a1.4 1.4 0 0 0 1.4-1.4V7.3a1.4 1.4 0 0 0-1.4-1.4Z" stroke="#000" stroke-opacity=".4" stroke-width="1.5" stroke-linecap="round" stroke-linejoin="round"/><path d="M3.1 10.1h-.7A1.4 1.4 0 0 1 1 8.7V2.4A1.4 1.4 0 0 1 2.4 1h6.3a1.4 1.4 0 0 1 1.4 1.4v.7" stroke="#000" stroke-opacity=".4" stroke-width="1.5" stroke-linecap="round" stroke-linejoin="round"/></svg>
